Source/WebInspectorUI/UserInterface/Images/gtk/NavigationItemLog.svg

<?xml version="1.0" encoding="UTF-8" standalone="no"?>
<!-- Created with Inkscape (http://www.inkscape.org/) -->

<svg
   xmlns:dc="http://purl.org/dc/elements/1.1/"
   xmlns:cc="http://creativecommons.org/ns#"
   xmlns:rdf="http://www.w3.org/1999/02/22-rdf-syntax-ns#"
   xmlns:svg="http://www.w3.org/2000/svg"
   xmlns="http://www.w3.org/2000/svg"
   version="1.1"
   width="16"
   height="16"
   id="svg5864">
  <defs
     id="defs5866" />
  <metadata
     id="metadata5869">
    <rdf:RDF>
      <cc:Work
         rdf:about="">
        <dc:format>image/svg+xml</dc:format>
        <dc:type
           rdf:resource="http://purl.org/dc/dcmitype/StillImage" />
        <cc:license
           rdf:resource="http://creativecommons.org/licenses/by-sa/3.0/" />
        <dc:title></dc:title>
      </cc:Work>
      <cc:License
         rdf:about="http://creativecommons.org/licenses/by-sa/3.0/">
        <cc:permits
           rdf:resource="http://creativecommons.org/ns#Reproduction" />
        <cc:permits
           rdf:resource="http://creativecommons.org/ns#Distribution" />
        <cc:requires
           rdf:resource="http://creativecommons.org/ns#Notice" />
        <cc:requires
           rdf:resource="http://creativecommons.org/ns#Attribution" />
        <cc:permits
           rdf:resource="http://creativecommons.org/ns#DerivativeWorks" />
        <cc:requires
           rdf:resource="http://creativecommons.org/ns#ShareAlike" />
      </cc:License>
    </rdf:RDF>
  </metadata>
  <g
     id="layer1">
    <path
       d="M 2.1875,0.5 C 0.98196,0.5 0,1.51672 0,2.71875 l 0,10.5625 C 0,14.48328 0.98197,15.5 2.1875,15.5 l 11.625,0 C 15.01803,15.5 16,14.48329 16,13.28125 L 16,2.71875 C 16,1.51671 15.01804,0.5 13.8125,0.5 l -11.625,0 z m 0,2 11.625,0 C 13.9353,2.5 14,2.5809 14,2.71875 l 0,10.5625 C 14,13.41909 13.93531,13.5 13.8125,13.5 l -11.625,0 C 2.06469,13.5 2,13.4191 2,13.28125 L 2,2.71875 C 2,2.5809 2.0647,2.5 2.1875,2.5 z"
       id="rect11749-5-9"
       style="font-size:medium;font-style:normal;font-variant:normal;font-weight:normal;font-stretch:normal;text-indent:0;text-align:start;text-decoration:none;line-height:normal;letter-spacing:normal;word-spacing:normal;text-transform:none;direction:ltr;block-progression:tb;writing-mode:lr-tb;text-anchor:start;color:#bebebe;fill-opacity:1;stroke:none;stroke-width:2;marker:none;visibility:visible;display:inline;overflow:visible;enable-background:accumulate;font-family:Bitstream Vera Sans;-inkscape-font-specification:Bitstream Vera Sans" />
    <path
       d="M 4.3125,6.40625 A 0.60006002,0.60006002 0 0 0 4.0625,7.4375 L 5.625,9 4.0625,10.5625 a 0.61871843,0.61871843 0 1 0 0.875,0.875 l 2,-2 a 0.60006002,0.60006002 0 0 0 0,-0.875 l -2,-2 A 0.60006002,0.60006002 0 0 0 4.3125,6.40625 z"
       id="path11751-2-3"
       style="font-size:medium;font-style:normal;font-variant:normal;font-weight:normal;font-stretch:normal;text-indent:0;text-align:start;text-decoration:none;line-height:normal;letter-spacing:normal;word-spacing:normal;text-transform:none;direction:ltr;block-progression:tb;writing-mode:lr-tb;text-anchor:start;color:#bebebe;fill-opacity:1;stroke:none;stroke-width:1.20000005;marker:none;visibility:visible;display:inline;overflow:visible;enable-background:accumulate;font-family:Bitstream Vera Sans;-inkscape-font-specification:Bitstream Vera Sans" />
    <rect
       width="3"
       height="1.00001"
       x="8"
       y="10.5"
       id="rect4987"
       style="color:#bebebe;fill-opacity:1;fill-rule:nonzero;stroke:none;stroke-width:1;marker:none;visibility:visible;display:inline;overflow:visible;enable-background:accumulate" />
  </g>
</svg>

<?xml version="1.0" encoding="UTF-8" standalone="no"?>
<!-- Licensed under the Creative Commons Attribution-Share Alike 3.0 United States License (http://creativecommons.org/licenses/by-sa/3.0/) -->
<svg xmlns="http://www.w3.org/2000/svg" version="1.1" viewBox="0 0 16 16">
 <g>
  <path style="block-progression:tb;text-indent:0;color:#bebebe;text-transform:none" d="m2.1875 0.5c-1.2055 0-2.1875 1.0167-2.1875 2.2188v10.562c0 1.202 0.98197 2.219 2.1875 2.219h11.625c1.206 0 2.188-1.017 2.188-2.219v-10.562c0-1.2023-0.982-2.219-2.188-2.219h-11.625zm0 2h11.625c0.123 0 0.188 0.0809 0.188 0.2188v10.562c0 0.138-0.065 0.219-0.188 0.219h-11.625c-0.1223 0-0.187-0.081-0.187-0.219v-10.562c0-0.1381 0.0647-0.219 0.1875-0.219z"/>
  <path style="block-progression:tb;text-indent:0;color:#bebebe;text-transform:none" d="m4.3125 6.4062a0.60006 0.60006 0 0 0 -0.25 1.0313l1.5625 1.5625-1.5625 1.562a0.61872 0.61872 0 1 0 0.875 0.875l2-2a0.60006 0.60006 0 0 0 0 -0.875l-2-2a0.60006 0.60006 0 0 0 -0.625 -0.1558z"/>
  <rect style="color:#bebebe" height="1" width="3" y="10.5" x="8"/>
 </g>
</svg>
